public/logos/logo.svg

<svg width="185" height="226" viewBox="0 0 185 226" fill="none" xmlns="http://www.w3.org/2000/svg">
    <g clip-path="url(#clip0)">
        <path
            d="M0.63 65c.38-19.25 19.75-25.73 33.81-34.1 14.06-8.37 30.8-19.86 45.94-27.5 8.56-4.32 16.12-4.39 24.68.06 8.56 4.45 18.1 11.12 26.79 16.24 13.23 7.81 29.05 15.83 41.47 24.4 6.66 4.6 10.3 11.24 11.51 19.19v78.64c-.7 8.1-5.81 15.18-12.61 19.96-10.86 7.64-24.97 14.42-36.55 21.46-21.89 13.31-43.28 27.43-65.2 40.69-1.65 1-3.53 1.64-5.46 1.68-4.44.09-7.39-2.73-7.81-8.15-.64-8.13.82-17.44 0-25.47-.27-2.66-1.89-4.58-3.99-6.12-11.34-8.26-26.28-14.92-38.26-22.75-8.07-5.27-14.12-12.63-14.28-22.77l-.02-.59V65zm148.84-17.81c-16.7-9.96-33.71-19.43-50.24-29.67-5.47-2.83-8.56-2.7-13.92.17-11.13 5.96-22.63 13.77-33.6 20.3-6.12 3.64-12.5 6.93-18.6 10.6-6.1 3.67-16.49 8.53-17.81 15.88-.88 4.86-.43 14.48-.42 20.29-.17 16.58.06 33.25.27 49.76.12 9.96 1.78 11.93 9.9 17.13 17.93 11.48 37.45 23.21 55.84 34 7.18 4.21 10.13 7.08 18.42 2.55 21.95-12.81 43.81-25.01 64.98-39.25.08-.05.16-.1.23-.16 6.47-5.51 5.87-10.14 6.12-17.74.15-18.09.11-37.29-.26-55.77-.07-5.24.36-10.17-2.33-15-2.73-4.89-13.53-10.05-18.57-13.05z"
            fill="#1A1A1A" />
        <path
            d="M36.15 73.29c0 4.04 3.27 7.31 7.31 7.31h98.24c4.04 0 7.31-3.27 7.31-7.31s-3.27-7.31-7.31-7.31H43.46c-4.04 0-7.31 3.27-7.31 7.31z"
            fill="#1A1A1A" />
        <path
            d="M36.15 104.93c0 4.04 3.27 7.31 7.31 7.31h98.24c4.04 0 7.31-3.27 7.31-7.31s-3.27-7.31-7.31-7.31H43.46c-4.04 0-7.31 3.27-7.31 7.31z"
            fill="#1A1A1A" />
        <path
            d="M36.15 136.57c0 4.04 3.27 7.31 7.31 7.31h73.43c4.04 0 7.31-3.27 7.31-7.31s-3.27-7.31-7.31-7.31H43.46c-4.04 0-7.31 3.27-7.31 7.31z"
            fill="#1A1A1A" />
    </g>
    <defs>
        <clipPath id="clip0">
            <rect width="185" height="226" fill="white" />
        </clipPath>
    </defs>
</svg>

<svg width="185" height="226" viewBox="0 0 185 226" fill="none" xmlns="http://www.w3.org/2000/svg">
<g clip-path="url(#clip0_2_2)">
<path d="M0.630005 65C1.01 45.75 20.38 39.27 34.44 30.9C48.5 22.53 65.24 11.04 80.38 3.39998C88.94 -0.92002 96.5 -0.990007 105.06 3.45999C113.62 7.90999 123.16 14.58 131.85 19.71C145.08 27.52 160.9 35.54 173.32 44.11C179.98 48.71 183.62 55.35 184.83 63.3L184.81 141.94C184.11 150.04 179 157.12 172.2 161.9C161.34 169.54 147.23 176.32 135.65 183.36C113.76 196.67 92.37 210.79 70.45 224.05C68.8 225.05 66.92 225.69 64.99 225.73C60.55 225.82 57.6 223 57.18 217.58C56.54 209.45 58 200.14 57.18 192.11C56.91 189.45 55.29 187.53 53.19 185.99C41.85 177.73 26.91 171.07 14.93 163.24C6.85999 157.97 0.809994 150.61 0.649994 140.47L0.630005 139.88V65ZM149.47 47.19C132.77 37.23 115.76 27.76 99.23 17.52C93.76 14.69 90.67 14.82 85.31 17.69C74.18 23.65 62.68 31.46 51.71 37.99C45.59 41.63 39.21 44.92 33.11 48.59C27.01 52.26 16.62 57.12 15.3 64.47C14.42 69.33 14.87 78.95 14.88 84.76C14.71 101.34 14.94 118.01 15.15 134.52C15.27 144.48 16.93 146.45 25.05 151.65C42.98 163.13 62.5 174.86 80.89 185.64C88.07 189.85 91.02 192.72 99.31 188.19C121.26 175.38 143.12 163.18 164.29 148.94C164.37 148.89 164.45 148.84 164.52 148.78C170.99 143.27 170.39 138.64 170.64 131.04C170.79 112.95 170.75 93.75 170.38 75.27C170.31 70.03 170.74 65.1 168.05 60.27C165.32 55.38 154.52 50.22 149.48 47.22V47.2L149.47 47.19Z" fill="black"/>
<path d="M36.15 73.29C36.15 77.33 39.42 80.6 43.46 80.6H141.7C145.74 80.6 149.01 77.33 149.01 73.29C149.01 69.25 145.74 65.98 141.7 65.98H43.46C39.42 65.98 36.15 69.25 36.15 73.29Z" fill="black"/>
<path d="M36.15 104.93C36.15 108.97 39.42 112.24 43.46 112.24H141.7C145.74 112.24 149.01 108.97 149.01 104.93C149.01 100.89 145.74 97.62 141.7 97.62H43.46C39.42 97.62 36.15 100.89 36.15 104.93Z" fill="black"/>
<path d="M36.15 136.57C36.15 140.61 39.42 143.88 43.46 143.88H116.89C120.93 143.88 124.2 140.61 124.2 136.57C124.2 132.53 120.93 129.26 116.89 129.26H43.46C39.42 129.26 36.15 132.53 36.15 136.57Z" fill="black"/>
</g>
<defs>
<clipPath id="clip0_2_2">
<rect width="185" height="226" fill="white"/>
</clipPath>
</defs>
</svg>
